!!!!SEGMENT: pl-cz--ii-246--002-002_anonim--partita-es-allegro-moderato.krn
!!!cenid: 17xx:2187
!!!COM: Anonim
!!!COM-rismID: pe30004985
!!!CDT:
!!!CNT:
!!!OPR: Partita Es
!!!OTL: Allegro moderato
!!!OMV: 002
!!!PDT:
!!!AGN: Secular
!!!YEC: Copyright 2022 Narodowy Instytut Fryderyka Chopina (https://polishscores.org)
!!!YEM: License CC-BY-4.0 (https://creativecommons.org/licenses/by/4.0)
!!!SMS-siglum: PL-CZ
!!!SMS-shelfmark: II-246
!!!SMS-shelfwork: 002-002 M
!!!SMS-variant:
!!!SMS-altvar:
!!!NIFC-rismSourceID: 1001012550
!!!NIFC-rismChildID: 1001012552
!!!NIFC-islandoraID: pl-cz:5882
!!!URL-pdf-islandora: https://repozytorium.nifc.pl/islandora/object/pl-cz%3A5882/datastream/PDF/view
!!!URL-scan: https://polish.musicsources.pl/pl/lokalizacje/galeria/rekopisy/795 @EN{Scan on Polish Music Sources Website} @PL{Skany w portalu Dziedzictwo Muzyki Polskiej w otwartym dostępie}
!!!IIIF:
!!!ONB-nifc: UWAGA: w źródle 2 Partity Es (początkowy nr 001 lub 002). Części 1. Partity: 1. Allegro, 2. Finale. Części 2. Partity: 1. Allegro, 2. Allegro moderato, 3. Finale
!!!AIN: 2 clars 2 empty 1 fagot 2 picco
!!!key:
**kern	**kern	**kern	**kern	**kern	**kern	**kern
*part7	*part6	*part5	*part4	*part3	*part2	*part1
*staff7	*staff6	*staff5	*staff4	*staff3	*staff2	*staff1
*Iempty	*Iempty	*Ifagot	*Iclars	*Iclars	*Ipicco	*Ipicco
*I"Cornu Secundo	*I"Cornu Primo	*I"Fagotto	*I"Clarinetto Secundo	*I"Clarinetto Primo	*I"Picolo Secundo	*I"Picolo Primo
*I'cor 2	*I'cor 1	*I'fag	*I'cl 2	*I'cl 1	*I'fl.picc 2	*I'fl.picc 1
*>[A,A,B,B]	*>[A,A,B,B]	*>[A,A,B,B]	*>[A,A,B,B]	*>[A,A,B,B]	*>[A,A,B,B]	*>[A,A,B,B]
*clefG2	*clefG2	*clefF4	*clefG2	*clefG2	*clefG2	*clefG2
*ITrd5c9	*ITrd5c9	*	*ITrd1c2	*ITrd1c2	*ITrd0c0	*ITrd0c0
*k[b-e-a-]	*k[b-e-a-]	*k[b-e-a-]	*k[b-e-a-]	*k[b-e-a-]	*k[b-e-a-]	*k[b-e-a-]
*E-:	*E-:	*E-:	*E-:	*E-:	*E-:	*E-:
*M6/8	*M6/8	*M6/8	*M6/8	*M6/8	*M6/8	*M6/8
=1	=1	=1	=1	=1	=1	=1
*>A	*>A	*>A	*>A	*>A	*>A	*>A
*all\right	*all\right	*all\right	*all\right	*all\right	*	*
!	!	!LO:TX:t=P:problem=kolejność znaków [BB- AA- E-]	!	!	!LO:TX:t=P:problem=brak partii, źródło wybrakowane	!LO:TX:t=P:problem=brak partii, źródło wybrakowane
4E-/	4e-\	4E-\	4e-/	4ee-\	2.ryy	2.ryy
!	!	!	!	!LO:TX:a:t=c	!	!
8BB-/	8B-/	8BB-/	8B-/	8b-\	.	.
4G/	4g\	4G\	4g/	4gg\	.	.
8E-/	8e-\	8E-\	8e-/	8ee-\	.	.
=2	=2	=2	=2	=2	=2	=2
8B-/L	8b-\L	8B-\L	8b-/L	8bb-\L	2.ryy	2.ryy
8G/	8g\	8G\	8g/	8gg\	.	.
8E-/J	8e-\J	8E-\J	8e-/J	8ee-\J	.	.
4BB-/	4B-/	4BB-/	4B-/	4b-\	.	.
8r	8r	8r	8r	8r	.	.
=3	=3	=3	=3	=3	=3	=3
*	*2\right	*	*	*	*	*
!LO:N:vis=1	!	!	!	!	!	!
2.E-/	2.e-\	4.e-\	4.cc\	4.ee-\	2.ryy	2.ryy
.	.	8d\L	8b-\L	8dd\L	.	.
.	.	8c\	8a-\	8cc\	.	.
.	.	8B-\J	8g\J	8b-\J	.	.
=4	=4	=4	=4	=4	=4	=4
4.E-/	4.e-\	4.c\	4.a-/	4.cc\	2.ryy	2.ryy
4E-/	4e-\	4B-\	4g/	4b-\	.	.
8r	8r	8r	8r	8r	.	.
=5	=5	=5	=5	=5	=5	=5
!	!	!LO:N:vis=4	!	!	!	!
4B-/	4f\	4.d\	4ff\	4aa-\	2.ryy	2.ryy
8e-\	8g\	.	8ee-\	8gg\	.	.
4B-/	4f\	8e-\L	4ff\	4aa-\	.	.
.	.	8d\J	.	.	.	.
8e-\	8g\	8e-\	8ee-\	8gg\	.	.
=6	=6	=6	=6	=6	=6	=6
!	!	!LO:TX:t=P:problem=mixed beam	!LO:SIC:v:o=8a/L	!	!	!
8r	8r	8A-\L	8a-/L	8ff\L	2.ryy	2.ryy
8G/L	8e-\L	8B-\	8g/	8ee-\	.	.
8B-/J	8f\J	8BB-/J	8f/J	8dd\J	.	.
4G/	4e-\	4E-\	4g/	4ee-\	.	.
8r	8r	8r	8r	8r	.	.
=7	=7	=7	=7	=7	=7	=7
!LO:TX:t=P:problem=brak kreski taktowej	!LO:N:vis=2.	!	!	!	!	!
!	!LO:N:vis=1.	!	!	!	!	!
2.E-/	2.e-\	4.e-\	8cc\L	8ee-\L	2.ryy	2.ryy
.	.	.	16ee-\L	16gg\L	.	.
.	.	.	16cc\	16ee-\	.	.
.	.	.	16ee-\	16gg\	.	.
.	.	.	16cc\JJ	16ee-\JJ	.	.
.	.	8d\L	8b-\L	8dd\L	.	.
.	.	8c\	8a-\	8cc\	.	.
.	.	8B-\J	8g\J	8b-\J	.	.
=-8	=8	=8	=8	=8	=8	=8
4.E-/	4.e-\	4.c\	8a-\L	8cc\L	2.ryy	2.ryy
.	.	.	16cc\L	16ee-\L	.	.
.	.	.	16a-\	16cc\	.	.
.	.	.	16cc\	16ee-\	.	.
.	.	.	16a-\JJ	16cc\JJ	.	.
4E-/	4e-\	4B-\	4g/	4b-\	.	.
8r	8r	8r	8r	8r	.	.
!	!	!LO:LB:g=original	!	!LO:LB:g=original	!	!
=9	=9	=9	=9	=9	=9	=9
4B-/	4f\	4.d\	4ff\	4aa-\	2.ryy	2.ryy
8e-\	8g\	.	8ee-\	8gg\	.	.
4B-/	4f\	8e-\L	4ff\	4aa-\	.	.
.	.	8d\J	.	.	.	.
8e-\	8g\	8e-\	8ee-\	8gg\	.	.
!	!	!	!LO:LB:g=original	!	!	!
=10	=10	=10	=10	=10	=10	=10
!	!	!LO:TX:t=P:problem=mixed beam	!	!	!	!
8r	8r	8A-\L	8a-\L	8aa-\L	2.ryy	2.ryy
8G/L	8e-\L	8B-\	8g\	8gg\	.	.
8B-/J	8f\J	8BB-/J	8f\J	8ff\J	.	.
4G/	4e-\	4E-\	4g\	4gg\	.	.
8r	8r	8r	8r	8r	.	.
!LO:LB:g=original	!LO:LB:g=original	!	!	!	!	!
=11	=11	=11	=11	=11	=11	=11
4E-/	4e-\	4E-\	4e-/	4ee-\	2.ryy	2.ryy
8BB-/	8B-/	8BB-/	8B-/	8b-\	.	.
4G/	4g\	4G\	4g/	4gg\	.	.
8E-/	8e-\	8E-\	8e-/	8ee-\	.	.
=12	=12	=12	=12	=12	=12	=12
8B-/L	8b-\L	8B-\L	8b-\L	8bb-\L	2.ryy	2.ryy
8G/	8g\	8G\	8g\	8gg\	.	.
8E-/J	8e-\J	8E-\J	8e-\J	8ee-\J	.	.
4BB-/	4B-/	4BB-/	4B-/	4b-\	.	.
8r	8r	8r	8r	8r	.	.
=13	=13	=13	=13	=13	=13	=13
!LO:TX:a:t=4	!LO:TX:a:t=1.	!LO:TX:a:t=4	!LO:TX:a:t=1.	!	!	!
!LO:N:vis=00	!LO:N:vis=00	!	!	!	!	!
0.r	2.r	0.r	2.r	8.ff\L	2.ryy	2.ryy
.	.	.	.	16gg\K	.	.
.	.	.	.	8ff\J	.	.
.	.	.	.	8ee-\L	.	.
.	.	.	.	8ee-\	.	.
.	.	.	.	8ee-\J	.	.
=14	=14	=14	=14	=14	=14	=14
.	4.f\	.	8.ff\L	8dd\L	2.ryy	2.ryy
.	.	.	.	8ee-\	.	.
.	.	.	16gg\K	.	.	.
.	.	.	8ff\J	8dd\J	.	.
.	4.f\	.	8ee-\L	4cc\	.	.
.	.	.	8ee-\	.	.	.
.	.	.	8ee-\J	8r	.	.
=15	=15	=15	=15	=15	=15	=15
.	4.f\	.	8.dd\L	8.ff\L	2.ryy	2.ryy
.	.	.	16ff\K	16gg\K	.	.
.	.	.	8dd\J	8ff\J	.	.
.	4.f\	.	8cc\L	8ee-\L	.	.
.	.	.	8cc\	8ee-\	.	.
.	.	.	8cc\J	8ee-\J	.	.
=16	=16	=16	=16	=16	=16	=16
.	4.f\	.	8.b-\L	8.dd\L	2.ryy	2.ryy
.	.	.	16cc\K	16ee-\K	.	.
.	.	.	8b-\J	8dd\J	.	.
!	!	!	!LO:SIC:v:o=8a-\L	!	!	!
.	4.f\	.	8a\L	4cc\	.	.
!	!	!	!LO:SIC:v:o=8a-\	!	!	!
.	.	.	8a\	.	.	.
!	!	!	!LO:SIC:v:o=8a-\J	!	!	!
.	.	.	8a\	8r	.	.
=17	=17	=17	=17	=17	=17	=17
!	!	!LO:TX:t=P:problem=mixed beam	!	!	!	!
4BB-/	4B-/	8BB-/L	8r	8dd\L	2.ryy	2.ryy
.	.	8B-\	16b-\LL	16dd\L	.	.
.	.	.	16cc\	16ee-\	.	.
8r	8r	8B-\J	16b-\	16dd\	.	.
.	.	.	16cc\JJ	16ee-\JJ	.	.
!	!	!LO:TX:t=P:problem=mixed beam	!	!	!	!
4r	4r	8BB-/L	4b-\	4ff\	.	.
.	.	8B-\	.	.	.	.
!	!	!	!LO:TX:t=P:problem=brak kreski taktowej	!	!	!
8r	8r	8B-\J	8r	8r	.	.
!	!	!	!	!LO:LB:g=original	!	!
=18	=18	=18	=-18	=18	=18	=18
!LO:TX:a:t=1.	!LO:TX:a:t=1	!LO:TX:t=P:problem=mixed beam	!	!	!	!
2.r	2.r	8BB-/L	16dd\LL	16ff\LL	2.ryy	2.ryy
.	.	.	16cc\	16ee-\	.	.
.	.	8B-\	16b-\	16dd\	.	.
.	.	.	16cc\	16ee-\	.	.
.	.	8B-\J	16dd\	16ff\	.	.
.	.	.	16ee-\JJ	16gg\JJ	.	.
!	!	!LO:TX:t=P:problem=mixed beam	!	!	!	!
!	!	!	!LO:LB:g=original	!	!	!
.	.	8BB-/L	4dd\	4ff\	.	.
.	.	8B-\	.	.	.	.
.	.	8B-\J	8r	8r	.	.
=19	=19	=19	=19	=19	=19	=19
4B-/	4b-\	4BB-/	4dd\	4bb-\	2.ryy	2.ryy
8r	8f\	8r	8ee-\	8ff\	.	.
4B-/	4b-\	4BB-/	4dd\	4bb-\	.	.
8r	8f\	8r	8dd\	8ff\	.	.
=20	=20	=20	=20	=20	=20	=20
*	*	*2\right	*	*	*	*
4e-\	4f\	2.E-\	8ee-\L	8gg\L	2.ryy	2.ryy
.	.	.	8gg\	8bb-\	.	.
8r	8r	.	8ff\J	8aa\J	.	.
4r	4r	.	8ee-\L	8gg\L	.	.
.	.	.	8dd\	8ff\	.	.
8r	8r	.	8cc\J	8ee-\J	.	.
!	!	!LO:LB:g=original	!	!	!	!
=21	=21	=21	=21	=21	=21	=21
4.B-/	4.b-\	8F\L	4.b-\	4.dd\	2.ryy	2.ryy
.	.	8F\	.	.	.	.
.	.	8F\J	.	.	.	.
4.f\	4.aX\	8FF/L	4.a\	4.cc\	.	.
.	.	8FF/	.	.	.	.
.	.	8FF/J	.	.	.	.
=22	=22	=22	=22	=22	=22	=22
!	!	!LO:TX:t=P:problem=mixed beam	!	!	!	!
4B-/	4b-\	8BB-/L	8r	8dd\L	2.ryy	2.ryy
.	.	8B-\	16b-\LL	16dd\L	.	.
.	.	.	16cc\	16ee-\	.	.
8r	8r	8B-\J	16b-\	16dd\	.	.
.	.	.	16cc\JJ	16ee-\JJ	.	.
!	!	!LO:TX:t=P:problem=mixed beam	!	!	!	!
4r	4r	8BB-/L	4dd\	4ff\	.	.
.	.	8B-\	.	.	.	.
8r	8r	8B-\J	8r	8r	.	.
=23	=23	=23	=23	=23	=23	=23
!LO:TX:a:t=1.	!LO:TX:a:t=1	!LO:TX:t=P:problem=mixed beam	!	!	!	!
2.r	2.r	8BB-/L	16dd\LL	16ff\LL	2.ryy	2.ryy
.	.	.	16cc\	16ee-\	.	.
.	.	8B-\	16b-\	16dd\	.	.
.	.	.	16cc\	16ee-\	.	.
.	.	8B-\J	16dd\	16ff\	.	.
.	.	.	16ee-\JJ	16gg\JJ	.	.
!	!	!LO:TX:t=P:problem=mixed beam	!	!	!	!
.	.	8BB-/L	4dd\	4ff\	.	.
.	.	8B-\	.	.	.	.
.	.	8B-\J	8r	8r	.	.
=24	=24	=24	=24	=24	=24	=24
!	!	!LO:SIC:v:o=4C/	!	!	!	!
4B-/	4b-\	4BB-/	4dd\	4bb-\	2.ryy	2.ryy
8r	8f\	8r	8dd\	8ff\	.	.
!	!	!LO:SIC:v:o=4C/	!	!	!	!
4B-/	4b-\	4BB-/	4dd\	4bb-\	.	.
8r	8f\	8r	8dd\	8ff\	.	.
!	!LO:LB:g=original	!	!	!	!	!
=25	=25	=25	=25	=25	=25	=25
4e-\	4g\	2.E-\	8ee-\L	8gg\L	2.ryy	2.ryy
.	.	.	8gg\	8bb-\	.	.
8r	8r	.	8ff\J	8aa\J	.	.
!	!	!	!	!LO:LB:g=original	!	!
4r	4r	.	8ee-\L	8gg\L	.	.
.	.	.	8dd\	8ff\	.	.
8r	8r	.	8cc\J	8ee-\J	.	.
!LO:LB:g=original	!	!	!	!	!	!
=26	=26	=26	=26	=26	=26	=26
4.B-/	4.b-\	8F\L	4.b-\	4.dd\	2.ryy	2.ryy
.	.	8F\	.	.	.	.
.	.	8F\J	.	.	.	.
4.e-\	4.aX\	8FF/L	4.a\	4.cc\	.	.
.	.	8FF/	.	.	.	.
.	.	8FF/J	.	.	.	.
!	!	!	!LO:LB:g=original	!	!	!
=27	=27	=27	=27	=27	=27	=27
4B-/	4b-\	4BB-/	8r	8dd\L	2.ryy	2.ryy
.	.	.	8b-\L	8dd\	.	.
8r	8r	8r	8cc\J	8ee-\J	.	.
4r	4r	4r	16dd\LL	16ff\LL	.	.
.	.	.	16ee-\	16gg\	.	.
.	.	.	16dd\	16ff\	.	.
.	.	.	16cc\J	16ee-\J	.	.
8r	8r	8r	8b-\J	8dd\J	.	.
=28	=28	=28	=28	=28	=28	=28
!	!LO:TX:t=P:problem=ta dziewiątka to raczej błąd	!	!	!	!	!
!LO:TX:a:t=3	!LO:TX:a:t=9	!LO:TX:a:t=3	!	!	!	!
!LO:N:vis=0	!LO:N:vis=0	!LO:N:vis=0	!	!	!	!
1.r	1.r	1.r	8ee-\L	8gg\L	2.ryy	2.ryy
.	.	.	8cc\	8ee-\	.	.
.	.	.	8cc\J	8ee-\J	.	.
.	.	.	16cc\LL	16ee-\LL	.	.
.	.	.	16dd\	16ff\	.	.
.	.	.	16cc\	16ee-\	.	.
.	.	.	16b-\J	16dd\J	.	.
.	.	.	8a\J	8cc\J	.	.
=29	=29	=29	=29	=29	=29	=29
!	!	!	!	!LO:TX:t=P:problem=repetycja taktów 27-28	!	!
.	.	.	8r	8dd\Lyy	2.ryy	2.ryy
.	.	.	8b-\L	8dd\yy	.	.
.	.	.	8cc\J	8ee-\Jyy	.	.
.	.	.	16dd\LL	16ff\LLyy	.	.
.	.	.	16ee-\	16gg\yy	.	.
.	.	.	16dd\	16ff\yy	.	.
.	.	.	16cc\J	16ee-\Jyy	.	.
.	.	.	8b-\J	8dd\Jyy	.	.
=30	=30	=30	=30	=30	=30	=30
2.r	2.r	2.r	8ee-\L	8gg\Lyy	2.ryy	2.ryy
.	.	.	8cc\	8ee-\yy	.	.
.	.	.	8cc\J	8ee-\Jyy	.	.
.	.	.	16cc\LL	16ee-\LLyy	.	.
.	.	.	16dd\	16ff\yy	.	.
.	.	.	16cc\	16ee-\yy	.	.
.	.	.	16b-\J	16dd\Jyy	.	.
!	!	!	!LO:SIC:v:o=8a-\J	!	!	!
.	.	.	8a	8cc\Jyy	.	.
=31	=31	=31	=31	=31	=31	=31
4BB-/	4B-/	4BB-/	4b-\	8dd\L	2.ryy	2.ryy
.	.	.	.	8ff\	.	.
8r	8r	8r	8dd\	8bb-\J	.	.
4BB-/	4B-/	4BB-/	8ee-\L	8gg\L	.	.
.	.	.	8dd\	8ff\	.	.
8r	8r	8r	8cc\J	8ee-\J	.	.
!	!	!LO:LB:g=original	!	!	!	!
=32	=32	=32	=32	=32	=32	=32
!	!	!	!LO:TX:t=P:problem=repetycja taktu 31	!	!	!
4BB-/	4B-/	4BB-/	4b-\yy	8dd\L	2.ryy	2.ryy
.	.	.	.	8ff\	.	.
8r	8r	8r	8dd\yy	8bb-\J	.	.
4BB-/	4B-/	4BB-/	8ee-\Lyy	8gg\L	.	.
.	.	.	8dd\yy	8ff\	.	.
!	!	!	!LO:TX:b:t=vi	!	!	!
!	!	!	!LO:TX:t=P:problem=wykreślony takt	!	!	!
8r	8r	8r	8cc\Jyy	8ee-\J	.	.
=33	=33	=33	=33	=33	=33	=33
!	!	!	!LO:TX:a:t=drugi system od dołu tej samej strony	!	!	!
!	!	!	!LO:TX:a:t=de	!	!	!
4.B-/	4.b-\	8F\L	4.b-\	4.dd\	2.ryy	2.ryy
.	.	8F\	.	.	.	.
.	.	8F\J	.	.	.	.
4.f\	4aX\	8FF/L	4.a\	4.cc\	.	.
.	.	8FF/	.	.	.	.
.	8ryy	8FF/J	.	.	.	.
=34	=34	=34	=34	=34	=34	=34
8B-/L	8b-\L	8BB-/L	8b-\L	8b-\L	2.ryy	2.ryy
8B-/	8b-\	8D/	8dd\	8bb-\	.	.
8B-/J	8b-\J	8F/J	8dd\J	8bb-\J	.	.
4B-/	4b-\	4B-\	4dd\	4bb-\	.	.
8r	8r	8r	8r	8r	.	.
!	!LO:LB:g=original	!	!	!LO:LB:g=original	!	!
=35:|!|:	=35:|!|:	=35:|!|:	=35:|!|:	=35:|!|:	=35:|!|:	=35:|!|:
*>B	*>B	*>B	*>B	*>B	*>B	*>B
!LO:TX:a:t=2	!LO:TX:a:t=2	!LO:TX:t=P:problem=mixed beam	!	!	!	!
!LO:N:vis=0	!LO:N:vis=0	!	!	!	!	!
1.r	1.r	8BB-/L	8d/L	8b-\L	2.ryy	2.ryy
.	.	8B-\	16d/L	16b-\L	.	.
.	.	.	16f/	16cc\	.	.
.	.	8B-\J	16d/	16b-\	.	.
.	.	.	16f/JJ	16cc\JJ	.	.
.	.	8BB-/L	4b-\	4dd\	.	.
.	.	8BB-/	.	.	.	.
.	.	8BB-/J	8r	8r	.	.
=36	=36	=36	=36	=36	=36	=36
!	!	!LO:TX:t=P:problem=mixed beam	!	!	!	!
.	.	8BB-/L	8b-\L	8dd\L	2.ryy	2.ryy
.	.	8B-\	16b-\L	16dd\L	.	.
.	.	.	16cc\	16ee-\	.	.
.	.	8B-\J	16b-\	16dd\	.	.
.	.	.	16cc\JJ	16ee-\JJ	.	.
!	!	!LO:TX:t=P:problem=mixed beam	!	!	!	!
.	.	8BB-/L	4dd\	4ff\	.	.
.	.	8B-\	.	.	.	.
.	.	8B-\J	8r	8r	.	.
=37	=37	=37	=37	=37	=37	=37
!	!	!LO:TX:t=P:problem=mixed beam	!	!	!	!
8B-/L	8f\L	8BB-/L	8dd\L	8ff\L	2.ryy	2.ryy
8B-/	8f\	16B-\L	8dd\	8ff\	.	.
.	.	16An\J	.	.	.	.
8e-/J	8g\J	8B-\J	8ee-\J	8gg\J	.	.
!	!	!LO:TX:t=P:problem=mixed beam	!	!	!	!
4f\	4a-\	8BB-/L	4ff\	4aa-X\	.	.
.	.	16B-\L	.	.	.	.
.	.	16An\J	.	.	.	.
8B-/	8f\	8B-\J	8dd\	8ff\	.	.
=38	=38	=38	=38	=38	=38	=38
!	!	!	!	!LO:TX:a:t=1.	!	!
4e-\	4g\	8G\L	8ee-\L	2.r	2.ryy	2.ryy
.	.	8G\	8ee-\	.	.	.
8r	8r	8A-\J	8ff\J	.	.	.
4r	4r	16B-\LL	16gg\LL	.	.	.
.	.	16c\	16aa-\	.	.	.
.	.	16B-\	16gg\	.	.	.
.	.	16A-\	16ff\J	.	.	.
8r	8r	16G\	8ee-\J	.	.	.
.	.	16F\JJ	.	.	.	.
!	!	!LO:LB:g=original	!	!	!	!
=39	=39	=39	=39	=39	=39	=39
!	!LO:TX:t=P:problem=znowu to samo z fałszywą dziewiątką	!	!	!	!	!
!LO:TX:a:t=3	!LO:TX:a:t=9	!LO:TX:a:t=1	!	!	!	!
!LO:N:vis=0	!LO:N:vis=0	!	!	!	!	!
1.r	1.r	2.r	8aa-\L	8ccc\L	2.ryy	2.ryy
.	.	.	8ff\	8aa-\	.	.
.	.	.	8ff\J	8aa-\J	.	.
.	.	.	16ff\LL	16aa-\LL	.	.
.	.	.	16gg\	16bb-\	.	.
.	.	.	16ff\	16aa-\	.	.
.	.	.	16ee-\J	16gg\J	.	.
.	.	.	8dd\J	8ff\J	.	.
=40	=40	=40	=40	=40	=40	=40
!	!	!	!	!LO:TX:a:t=1.	!	!
.	.	8G\L	8ee-\L	2.r	2.ryy	2.ryy
.	.	8G\	8ee-\	.	.	.
.	.	8A-\J	8ff\J	.	.	.
.	.	16B-\LL	16gg\LL	.	.	.
.	.	16c\	16aa-\	.	.	.
.	.	16B-\	16gg\	.	.	.
.	.	16A-\J	16ff\J	.	.	.
!	!	!	!LO:TX:a:t=re	!	!	!
.	.	8G\J	8ee-\J	.	.	.
!	!	!	!LO:LB:g=original	!	!	!
=41	=41	=41	=41	=41	=41	=41
!	!	!	!LO:TX:a:t=powrót tam skąd wybyliśmy	!	!	!
!	!	!LO:TX:a:t=1	!LO:TX:b:t=tro.	!	!	!
2.r	2.r	2.r	8aa-\L	8ccc\L	2.ryy	2.ryy
.	.	.	8ff\	8aa-\	.	.
.	.	.	8ff\J	8aa-\J	.	.
.	.	.	16ff\LL	16aa-\LL	.	.
.	.	.	16gg\	16bb-\	.	.
.	.	.	16ff\	16aa-\	.	.
.	.	.	16ee-\J	16gg\J	.	.
!	!	!	!LO:N:vis=16	!	!	!
.	.	.	8dd\J	8ff\J	.	.
!LO:PB:g=original	!	!	!LO:LB:g=original	!	!	!
=42	=42	=42	=42	=42	=42	=42
!LO:TX:a:i:t=Solo	!LO:TX:i:a:t=Solo	!	!	!	!	!
8r	8r	8E-\	8ee-\L	8gg\L	2.ryy	2.ryy
8e-\L	8g\L	4r	8ee-\	8gg\	.	.
8f\J	8a-\J	.	8ff\J	8aa-\J	.	.
!	!	!	!	!LO:LB:g=original	!	!
(16g\LL	16b-\LL	8E-\	16gg\LL	16bb-\LL	.	.
16a-\	16cc\	.	16aa-\	16ccc\	.	.
16g\)	16b-\	4r	16gg\	16bb-\	.	.
16f'\J	16a-\J	.	16ff\J	16aa-\J	.	.
8e-\J	8g\J	.	8ee-\J	8gg\J	.	.
=43	=43	=43	=43	=43	=43	=43
(16g\LL	16b-\LL	4E-\	16gg\LL	16bb-\LL	2.ryy	2.ryy
16a-\)	16cc\	.	16aa-\	16ccc\	.	.
16g\	16b-\	.	16gg\	16bb-\	.	.
16f\J	16a-\J	.	16ff\J	16aa-\J	.	.
!LO:N:vis=16	!	!	!	!	!	!
8e-\J	8g\J	8r	8ee-\J	8gg\J	.	.
4B-/	4f\	16B-\LL	4dd\	4ff\	.	.
.	.	16c\	.	.	.	.
.	.	16B-\	.	.	.	.
.	.	16A-\	.	.	.	.
8r	8r	16G\	8r	8r	.	.
.	.	16F\JJ	.	.	.	.
=44	=44	=44	=44	=44	=44	=44
4E-/	4e-\	4E-\	4e-/	4ee-\	2.ryy	2.ryy
8BB-/	8B-/	8BB-/	8B-/	8b-\	.	.
4G/	4g\	4G\	4g/	4gg\	.	.
8E-/	8e-\	8E-\	8e-/	8ee-\	.	.
=45	=45	=45	=45	=45	=45	=45
8B-/L	8b-\L	8B-\L	8b-\L	8bb-\L	2.ryy	2.ryy
8G/	8g\	8G\	8g\	8gg\	.	.
8E-/J	8e-\J	8E-\J	8e-\J	8ee-\J	.	.
4BB-/	4B-/	4BB-/	4B-/	4b-\	.	.
8r	8r	8r	8r	8r	.	.
=46	=46	=46	=46	=46	=46	=46
!LO:N:vis=1.	!LO:N:vis=1.	!	!LO:TX:a:t=d	!	!	!
2.E-/	2.e-\	4.e-\	4.cc\	4.ee-\	2.ryy	2.ryy
.	.	8d\L	8b-\L	8dd\L	.	.
.	.	8c\	8a-\	8cc\	.	.
.	.	8B-\J	8g\J	8b-\J	.	.
=47	=47	=47	=47	=47	=47	=47
4.E-/	4.e-\	4.c\	4.a-\	4.cc\	2.ryy	2.ryy
4E-/	4e-\	4B-\	4g\	4b-\	.	.
8r	8r	8r	8r	8r	.	.
!	!LO:LB:g=original	!LO:LB:g=original	!	!	!	!
=48	=48	=48	=48	=48	=48	=48
4B-/	4f\	4d\	4ff\	4aa-\	2.ryy	2.ryy
8e-\	8a-\	8e-\	8ee-\	8gg\	.	.
4B-/	4f\	4d\	4ff\	4aa-\	.	.
8e-\	8a-\	8e-\	8ee-\	8gg\	.	.
=49	=49	=49	=49	=49	=49	=49
!	!	!LO:TX:t=P:problem=mixed beam	!	!	!	!
8ryy	8r	8A-\L	8a-\L	8ff\L	2.ryy	2.ryy
8G/L	8e-\L	8B-\	8g\	8ee-\	.	.
8B-/J	8f\J	8BB-/J	8f\J	8dd\J	.	.
4G/	4e-\	4E-\	4g\	4ee-\	.	.
8r	8r	8r	8r	8r	.	.
=50	=50	=50	=50	=50	=50	=50
!	!LO:N:vis=1.	!	!	!	!	!
2.E-/	2.e-\	4.e-\	8cc\L	8ee-\L	2.ryy	2.ryy
.	.	.	16ee-\L	16gg\L	.	.
.	.	.	16cc\	16ee-\	.	.
.	.	.	16ee-\	16gg\	.	.
.	.	.	16cc\JJ	16ee-\JJ	.	.
!	!	!	!LO:LB:g=original	!LO:LB:g=original	!	!
.	.	8d\L	8b-\L	8dd\L	.	.
.	.	8c\	8a-\	8cc\	.	.
.	.	8B-\J	8g\J	8b-\J	.	.
=51	=51	=51	=51	=51	=51	=51
4.E-/	4.e-\	4.c\	8a-\L	8cc\L	2.ryy	2.ryy
.	.	.	16cc\L	16ee-\L	.	.
.	.	.	16a-\	16cc\	.	.
.	.	.	16cc\	16ee-\	.	.
.	.	.	16a-\JJ	16cc\JJ	.	.
4E-/	4e-\	4B-\	4g/	4b-\	.	.
8r	8r	8r	8r	8r	.	.
!LO:LB:g=original	!	!	!	!	!	!
=52	=52	=52	=52	=52	=52	=52
4B-/	4f\	8d\	4ff\	4aa-\	2.ryy	2.ryy
.	.	4e-\	.	.	.	.
8e-\	8g\	.	8ee-\	8gg\	.	.
4B-/	4f\	4d\	4ff\	4aa-\	.	.
8e-\	8g\	8e-\	8ee-\	8gg\	.	.
=53	=53	=53	=53	=53	=53	=53
!	!	!LO:TX:t=P:problem=mixed beam	!LO:TX:a:t=x	!	!	!
8r	8r	8A-\L	8a-\L	8ff\L	2.ryy	2.ryy
8G/L	8e-\L	8B-\	8g\	8ee-\	.	.
8B-/J	8f\J	8BB-/J	8f\J	8dd\J	.	.
4G/	4e-\	4E-\	4g\	4ee-\	.	.
8ryy	8r	8r	8r	8r	.	.
=54	=54	=54	=54	=54	=54	=54
!LO:TX:a:t=4	!LO:TX:a:t=1	!LO:TX:a:t=4	!LO:TX:a:t=1.	!	!	!
!LO:N:vis=00	!LO:N:vis=00	!	!	!	!	!
0.r	2.r	0.r	2.r	8b-\L	2.ryy	2.ryy
.	.	.	.	8cc\	.	.
.	.	.	.	8b-\J	.	.
.	.	.	.	8a-\L	.	.
.	.	.	.	8a-\	.	.
.	.	.	.	8a-\J	.	.
=55	=55	=55	=55	=55	=55	=55
!	!	!	!	!LO:N:vis=8.	!	!
.	4.B-/	.	8.b-\L	8g/L	2.ryy	2.ryy
.	.	.	.	8a-/	.	.
.	.	.	16cc\K	.	.	.
.	.	.	8b-\J	8g/J	.	.
.	4.B-/	.	8a-\L	4f/	.	.
.	.	.	8a-\	.	.	.
.	.	.	8a-\J	8r	.	.
=56	=56	=56	=56	=56	=56	=56
.	4.B-/	.	8.g/L	8b-\L	2.ryy	2.ryy
.	.	.	.	8cc\	.	.
.	.	.	16a-/K	.	.	.
.	.	.	8g/J	8b-\J	.	.
.	4.B-/	.	8f\L	8a-\L	.	.
.	.	.	8f\	8a-\	.	.
.	.	.	8f\J	8a-\J	.	.
=57	=57	=57	=57	=57	=57	=57
!	!	!	!	!LO:N:vis=8.	!	!
.	4.B-/	.	8.e-/L	8g/L	2.ryy	2.ryy
.	.	.	.	8a-/	.	.
.	.	.	16f/K	.	.	.
.	.	.	8e-/J	8g/J	.	.
.	4.B-/	.	8d/L	4f/	.	.
.	.	.	8d/	.	.	.
.	.	.	8d/J	8r	.	.
!	!	!	!	!LO:LB:g=original	!	!
=58	=58	=58	=58	=58	=58	=58
!	!	!LO:TX:t=P:problem=mixed beam	!	!	!	!
4E-/	4e-\	8EE-/L	8ee-\L	8gg\L	2.ryy	2.ryy
.	.	8E-\	16ee-\L	16gg\L	.	.
.	.	.	16ff\	16aa-\	.	.
8r	8r	8E-\J	16ee-\	16gg\	.	.
.	.	.	16ff\JJ	16aa-\JJ	.	.
!	!	!LO:TX:t=P:problem=mixed beam	!	!	!	!
4r	4r	8EE-/L	4gg\	4bb-\	.	.
.	.	8E-\	.	.	.	.
8r	8r	8E-\J	8r	8r	.	.
!	!	!	!LO:LB:g=original	!	!	!
=59	=59	=59	=59	=59	=59	=59
!	!LO:TX:a:t=1	!LO:TX:t=P:problem=mixed beam	!	!	!	!
2.r	2.r	8EE-/L	16g/LL	16b-/LL	2.ryy	2.ryy
.	.	.	16f/	16a-/	.	.
.	.	8E-\	16e-/	16g/	.	.
.	.	.	16f/	16a-/	.	.
.	.	8E-\J	16g/	16b-/	.	.
.	.	.	16a-/JJ	16cc/JJ	.	.
!	!	!LO:TX:t=P:problem=mixed beam	!	!	!	!
.	.	8EE-/L	4g/	4b-\	.	.
.	.	8E-\	.	.	.	.
.	.	8E-\J	8r	8r	.	.
=60	=60	=60	=60	=60	=60	=60
4E-/	4e-\	4EE-/	4g/	4ee-\	2.ryy	2.ryy
8r	8B-/	8r	8g/	8b-\	.	.
4E-/	4e-\	4EE-/	4g/	4ee-\	.	.
!LO:TX:t=P:problem=takt wykreślony	!	!	!	!	!	!
8r	8B-/	8r	8g/	8b-\	.	.
!	!LO:LB:g=original	!LO:LB:g=original	!	!	!	!
=61	=61	=61	=61	=61	=61	=61
4E-/	4e-\	2.A-\	8a-\L	8cc\L	2.ryy	2.ryy
.	.	.	8cc\	8ee-\	.	.
8r	8r	.	8a-\J	8dd\J	.	.
4r	4r	.	8a-\L	8cc\L	.	.
.	.	.	8g\	8b-\	.	.
8r	8r	.	8f\J	8a-\J	.	.
=62	=62	=62	=62	=62	=62	=62
16G/LL	4.e-\	4.B-\	4.e-/	4.g/	2.ryy	2.ryy
16E-/	.	.	.	.	.	.
16G/	.	.	.	.	.	.
16E-/	.	.	.	.	.	.
16G/	.	.	.	.	.	.
!LO:TX:t=P:problem=nadmiarowa kreska taktowa	!	!	!	!	!	!
16E-/JJ	.	.	.	.	.	.
4B-/	4.f\	4.BB-/	4.d/	4f/	.	.
!LO:N:vis=4	!	!	!	!	!	!
8BB-/	.	.	.	8ryy	.	.
=63	=63	=63	=63	=63	=63	=63
!	!	!LO:TX:t=P:problem=mixed beam	!	!LO:TX:t=P:problem=mixed beam	!	!
4E-/	4e-\	8EE-/L	8ee-\L	8g/L	2.ryy	2.ryy
.	.	8E-\	16ee-\L	16gg\L	.	.
.	.	.	16ff\	16aa-\	.	.
8r	8r	8E-\J	16ee-\	16gg\	.	.
.	.	.	16ff\JJ	16aa-\JJ	.	.
!	!	!LO:TX:t=P:problem=mixed beam	!	!	!	!
4r	4r	8EE-/L	4gg\	4bb-\	.	.
.	.	8E-\	.	.	.	.
8r	8r	8E-\J	8r	8r	.	.
=64	=64	=64	=64	=64	=64	=64
!LO:TX:a:t=1	!	!LO:TX:t=P:problem=mixed beam	!	!	!	!
2.r	2.r	8EE-/L	16g/LL	16b-/LL	2.ryy	2.ryy
.	.	.	16f/	16a-/	.	.
.	.	8E-\	16e-/	16g/	.	.
.	.	.	16f/	16a-/	.	.
.	.	8E-\J	16g/	16b-/	.	.
.	.	.	16a-/JJ	16cc/JJ	.	.
!	!	!LO:TX:t=P:problem=mixed beam	!	!	!	!
.	.	8EE-/L	4g/	4b-\	.	.
.	.	8E-\	.	.	.	.
.	.	8E-\J	8r	8r	.	.
!LO:LB:g=original	!	!	!	!	!	!
=65	=65	=65	=65	=65	=65	=65
4E-/	4e-\	4EE-/	4g/	4ee-\	2.ryy	2.ryy
8r	8B-/	8r	8g/	8b-\	.	.
4E-/	4e-\	4EE-/	4g/	4ee-\	.	.
8r	8B-/	8r	8g/	8b-\	.	.
!	!	!	!	!LO:LB:g=original	!	!
=66	=66	=66	=66	=66	=66	=66
4E-/	4e-\	2.A-\	8a-\L	8cc\L	2.ryy	2.ryy
.	.	.	8cc\	8ee-\	.	.
8r	8r	.	8b-\J	8dd\J	.	.
4r	4r	.	8a-\L	8cc\L	.	.
.	.	.	8g\	8b-\	.	.
8r	8r	.	8f\J	8a-\J	.	.
=67	=67	=67	=67	=67	=67	=67
16G/LL	4.e-\	8B-\L	4.e-/	4.g/	2.ryy	2.ryy
16E-/	.	.	.	.	.	.
16G/	.	8B-\	.	.	.	.
16E-/	.	.	.	.	.	.
16G/	.	8B-\J	.	.	.	.
16E-/JJ	.	.	.	.	.	.
4B-/	4.f\	8BB-/L	4.d/	4.f/	.	.
.	.	8BB-/	.	.	.	.
8BB-/	.	8BB-/J	.	.	.	.
!	!	!	!LO:LB:g=original	!	!	!
=68	=68	=68	=68	=68	=68	=68
!LO:TX:t=P:problem=mixed beam	!	!	!	!	!	!
8F/L	8g\L	4E-\	4e-/	4g/	2.ryy	2.ryy
8e-\	8g\	.	.	.	.	.
8f\J	8a-\J	8r	8r	8r	.	.
!	!	!	!	!LO:N:vis=4	!	!
16g\LL	(16b-\LL	4r	4r	4.r	.	.
16a-\	16cc\	.	.	.	.	.
16g\	16b-\	.	.	.	.	.
16f\J	16a-\J)	.	.	.	.	.
8e-\J	8g\J	8r	8r	.	.	.
=69	=69	=69	=69	=69	=69	=69
!LO:TX:a:t=1	!LO:TX:a:t=1	!LO:TX:a:t=3	!	!	!	!
!	!	!LO:N:vis=0	!	!	!	!
2.r	2.r	1.r	8a-/L	8cc\L	2.ryy	2.ryy
.	.	.	8f/	8a-\	.	.
.	.	.	8f/J	8a-\J	.	.
.	.	.	16f/LL	16a-\LL	.	.
.	.	.	16g/	16b-\	.	.
.	.	.	16f/	16a-\	.	.
.	.	.	16e-/J	16g\J	.	.
!	!	!	!LO:TX:a:t=2 vi	!	!	!
.	.	.	8d/J	8f\J	.	.
=70	=70	=70	=70	=70	=70	=70
!	!	!	!LO:TX:a:t=ostatni system	!	!	!
!	!	!	!LO:TX:a:t=2de	!	!	!
8r	8r	.	4d/	4f/	2.ryy	2.ryy
8e-\L	8g\L	.	.	.	.	.
8f\J	8a-\J	.	8r	8r	.	.
16g\LL	(16b-\LL	.	8r	4.r	.	.
16a-\	16cc\)	.	.	.	.	.
16g\	16b-\	.	4r	.	.	.
16f\J	16a-\J	.	.	.	.	.
!LO:N:vis=16	!	!	!	!	!	!
8e-\J	8g\J	.	.	.	.	.
=71	=71	=71	=71	=71	=71	=71
!LO:TX:a:t=1	!LO:TX:a:t=1	!	!	!	!	!
2.r	2.r	2.r	8a-/L	8cc\L	2.ryy	2.ryy
.	.	.	8f/	8a-\	.	.
.	.	.	8f/J	8a-\J	.	.
.	.	.	16f/LL	16a-\LL	.	.
.	.	.	16g/	16b-\	.	.
.	.	.	16f/	16a-\	.	.
.	.	.	16e-/J	16g\J	.	.
!	!	!	!LO:TX:b:t=Re&colon;	!LO:TX:t=P:problem=wykreślone dwa/trzy takty	!	!
.	.	.	8d/J	8f\J	.	.
=72	=72	=72	=72	=72	=72	=72
!	!	!	!LO:TX:b:t=tro.	!	!	!
4E-/	4e-\	4E-\	4e-/	8g\L	2.ryy	2.ryy
.	.	.	.	8b-\	.	.
8r	8r	8r	8g/	8ee-\J	.	.
4E-/	4e-\	4E-\	8a-/L	8cc\L	.	.
.	.	.	8g/	8b-\	.	.
8r	8r	8r	8f/J	8a-\J	.	.
!	!LO:LB:g=original	!LO:LB:g=original	!	!LO:LB:g=original	!	!
=73	=73	=73	=73	=73	=73	=73
4E-/	4e-\	4E-\	4e-/	8g\L	2.ryy	2.ryy
.	.	.	.	8b-\	.	.
8r	8r	8r	8g/	8ee-\J	.	.
4E-/	4e-\	4E-\	8a-/L	8cc\L	.	.
.	.	.	8g/	8b-\	.	.
8r	8r	8r	8f/J	8a-\J	.	.
=74	=74	=74	=74	=74	=74	=74
4.G/	4.e-\	8B-\L	4.e-/	4.g/	2.ryy	2.ryy
.	.	8B-\	.	.	.	.
.	.	8B-\J	.	.	.	.
4.A-/	4.f\	8BB-/L	4.d/	4.f/	.	.
.	.	8BB-/	.	.	.	.
.	.	8BB-/J	.	.	.	.
!LO:LB:g=original	!	!	!	!	!	!
=75	=75	=75	=75	=75	=75	=75
!	!	!	!	!LO:TX:t=P:problem=mixed beam	!	!
8G/L	8e-\L	8E-/L	8e-/L	8g/L	2.ryy	2.ryy
8G/	8e-\	8BB-/	8g/	8ee-\	.	.
8G/J	8e-\J	8GG/J	8g/J	8ee-\J	.	.
4G/	4e-\	4EE-/	4g/	4ee-\	.	.
!	!	!	!	!LO:N:vis=4	!	!
8r	8r	8r	8r	8r	.	.
=:|!	=:|!	=:|!	=:|!	=:|!	=:|!	=:|!
*-	*-	*-	*-	*-	*-	*-
!!!system-decoration: [(s1,s2,s3,s4,s5)],[(s6,s7)]
!!!ENC: Andrzej Gręziak
!!!END: 2021-06-19
!!!EED: Andrzej Borzym
!!!EEV: 2021-06-24
